src/bright/hiso font bright_270E.svg

<svg xmlns="http://www.w3.org/2000/svg" width="126" height="126" viewBox="0 0 126 126"><path fill="#000101" d="M54 49.5h-54l27 40.5 54 27 27-13.5v-27l-54-27zm36 21.36l11.29 5.64-20.29 10.15-11.301-5.65 20.291-10.14h.01zm-77.65-8.245v-6.787l14.65 7.172v21.59l-14.65-21.975zm35.65-10.115l-17.655 8.828-14.492-7.25 3.153-1.577h28.994zm35.279 15l-20.289 10.15-29.291-14.65 20.301-10.15 29.279 14.65zm-23.279 35.65v-23.65l6 3v23.65l-6-3zm45-1.51l-24 12.01v-23.646l24-12.004v23.64z"/></svg>

<svg xmlns="http://www.w3.org/2000/svg" width="126" height="126"><path fill="#000101" d="M54 49.5H0L27 90l54 27 27-13.5v-27l-54-27zm36 21.36l11.29 5.64L81 86.65 69.699 81 89.99 70.86H90zm-77.65-8.245v-6.787L27 63v21.59L12.35 62.615zM48 52.5l-17.655 8.828-14.492-7.25 3.153-1.577H48zm35.279 15L62.99 77.65 33.699 63 54 52.85 83.279 67.5zM60 103.15V79.5l6 3v23.65l-6-3zm45-1.51l-24 12.01V90.004L105 78v23.64z"/></svg>
